X:109
T:Bonny Kitty
M:2/4
L:1/8
N:See vol. 3, No. 163. "The Turtle"
B:Thompson's Compleat Collection of 200 Favourite Country Dances, vol. 2 (London, 1765)
Z:Transcribed and edited by Flynn Titford-Mock, 2007
Z:abc's:AK/Fiddler's Companion
K:G
[G,D] | [G,G][G,G] G/A/B/c/ | [Dd][Dd]-d/g/f/e/ | d/e/d/c/ B/c/B/A/ | GGG :: (g | g/)f/e/d/ c/B/A/G/ |
[Ec][Ec][Ec][za]- | a/g/f/e/ d/c/B/A/ | [GB][GB][GB][zg]- | g/f/e/d/ c/B/A/G/ | [Ec][Ec][ce][zg] | ed/c/ B/c/A/B/ | GGG :|

